TV/Source/CT D CT Art - Dark.svg

<svg height="5.182786mm" viewBox="0 0 7.3999987 5.182786" width="7.399999mm" xmlns="http://www.w3.org/2000/svg" xmlns:xlink="http://www.w3.org/1999/xlink"><clipPath id="a"><path d="m289.404 673.765h20.976v7.147h-20.976z"/></clipPath><g clip-path="url(#a)" transform="matrix(.35277777 0 0 -.35277777 -102.095367 240.210617)"><g transform="translate(302.9411 680.0648)"><path d="m0 0c-.59 0-.843-.203-.911-.582h1.823c-.069.379-.322.582-.912.582" fill="#0e87d2"/></g><g transform="translate(289.6422 679.4829)"><path d="m0 0h2.437c.193.277.525.383 1.148.449.308.033.635.052.928.063v.918c-.618-.011-1.382-.038-2.087-.094-1.666-.134-2.168-.385-2.426-1.336" fill="#0e87d2"/></g><g transform="translate(302.9411 678.4043)"><path d="m0 0c .71 0 .932.293.932.826 0 .091-.006.175-.02.253h-1.823c-.014-.078-.021-.162-.021-.253 0-.533.222-.826.932-.826" fill="#8ad03a"/></g><g transform="translate(291.813 678.543)"><path d="m0 0c .055.44.123.736.266.94h-2.437c-.042-.156-.078-.331-.111-.528-.051-.302-.083-.613-.102-.901h2.338c.011.16.026.327.046.489" fill="#8ad03a"/></g><g transform="translate(291.7422 677.3378)"><path d="m0 0c0 .196.006.448.024.716h-2.337c-.018-.267-.025-.514-.025-.715 0-.202.007-.448.025-.715h2.337c-.018.267-.024.52-.024.714" fill="#f89a0f"/></g><g transform="translate(291.7666 676.6239)"><path d="m0 0h-2.337c.018-.289.051-.6.101-.902.034-.196.069-.371.112-.528h2.437c-.143.204-.211.5-.266.94-.021.163-.036.329-.047.49" fill="#f36717"/></g><g transform="translate(302.9411 676.5491)"><path d="m0 0c-.71 0-.932-.293-.932-.835 0-.212.036-.387.123-.52h1.618c.088.133.123.308.123.52 0 .542-.222.835-.932.835" fill="#f36717"/></g><g transform="translate(302.9411 674.889)"><path d="m0 0c .426 0 .677.106.809.305h-1.618c.132-.199.383-.305.809-.305" fill="#ed1c24"/></g><g transform="translate(293.2267 674.7457)"><path d="m0 0c-.622.067-.953.173-1.147.449h-2.438c.258-.951.76-1.203 2.427-1.336.705-.056 1.468-.084 2.087-.094v.918c-.293.01-.621.03-.929.063" fill="#ed1c24"/></g><g transform="translate(307.0516 680.4153)"><path d="m0 0h-2.157v-.932h4.772c-.58.614-1.485.932-2.615.932" fill="#0e87d2"/></g><g transform="translate(296.1463 679.9323)"><path d="m0 0c .623-.067.954-.173 1.148-.449h2.437c-.257.951-.76 1.202-2.426 1.336-.705.055-1.468.083-2.087.093v-.917c.293-.011.621-.03.928-.063" fill="#0e87d2"/></g><g transform="translate(297.5606 678.543)"><path d="m0 0c .021-.162.036-.329.046-.489h2.338c-.019.288-.051.599-.102.901-.033.197-.069.372-.111.528h-2.437c.143-.204.211-.5.266-.94" fill="#50be37"/></g><g transform="translate(306.5809 678.0534)"><path d="m0 0v1.119h.595c.758 0 1.251-.398 1.414-1.119h1.748c-.091.581-.322 1.059-.671 1.43h-4.772v-1.43z" fill="#8ad03a"/></g><g transform="translate(308.6496 677.4772)"><path d="m0 0c0-.329-.05-.615-.144-.853h1.777c.064.261.098.545.098.853 0 .202-.014.394-.043.577h-1.748c.04-.174.06-.367.06-.577" fill="#f7961d"/></g><g transform="translate(297.6071 676.6239)"><path d="m0 0h2.338c.017.266.024.513.024.715 0 .201-.007.448-.024.715h-2.338c.018-.268.024-.52.024-.716 0-.194-.006-.447-.024-.714" fill="#f89a0f"/></g><path d="m306.581 678.053h-1.687v-1.429h1.687z" fill="#f89a0f"/><g transform="translate(307.1758 675.7811)"><path d="m0 0h-.595v.843h-1.687v-1.43h4.465c.455.345.773.824.923 1.43h-1.776c-.218-.546-.675-.843-1.33-.843" fill="#f25b23"/></g><g transform="translate(299.9449 676.6239)"><path d="m0 0h-2.338c-.011-.161-.026-.327-.046-.49-.056-.44-.124-.736-.267-.94h2.437c.043.157.079.332.112.528.051.302.083.613.102.902" fill="#f36717"/></g><g transform="translate(299.7315 675.1943)"><path d="m0 0h-2.437c-.194-.276-.525-.382-1.148-.449-.308-.033-.635-.052-.928-.063v-.918c.619.011 1.382.038 2.087.094 1.666.134 2.168.385 2.426 1.336" fill="#ee2533"/></g><g transform="translate(304.8943 674.5381)"><path d="m0 0h2.157c.946 0 1.735.223 2.307.656h-4.464z" fill="#ed1c24"/></g></g><g fill="#888b8c" transform="matrix(.01233336 0 0 .01233336 1.180251 7.451779)"><path d="m-92.354-320.53c-2.5823 15.266-3.3418 31.494-3.3418 42.532s.75949 27.266 3.3418 42.532c6.2025 36.633 15.722 44.937 66.759 49.013 18.532 1.4937 38.608 2.2025 54.886 2.481v-24.152c-7.7215-.27848-16.329-.78481-24.405-1.6456-28.456-3.038-33.772-9.2152-37.215-36.557-1.443-11.342-1.8734-23.443-1.8734-31.646 0-8.2278.43038-20.329 1.8734-31.722 3.443-27.316 8.7595-33.494 37.215-36.532 8.0759-.86076 16.684-1.3671 24.405-1.6456v-24.127c-16.278.25317-36.354.98735-54.886 2.4557-51.038 4.076-60.557 12.354-66.759 49.013"/><path d="m112.16-369.55c-18.532-1.4684-38.608-2.2025-54.886-2.4557v24.127c7.6962.27848 16.329.78481 24.405 1.6456 28.456 3.038 33.772 9.2152 37.215 36.557 1.4177 11.392 1.8481 23.468 1.8481 31.696 0 8.2025-.43038 20.304-1.8481 31.671-3.443 27.316-8.7595 33.494-37.215 36.532-8.0759.86076-16.709 1.3924-24.405 1.6709v24.127c16.278-.25316 36.354-.98734 54.886-2.4557 51.038-4.1013 60.557-12.38 66.759-49.038 2.557-15.266 3.3165-31.494 3.3165-42.532 0-11.013-.75949-27.266-3.3165-42.532-6.2025-36.633-15.722-44.911-66.759-49.013"/><path d="m501.72-255.45c-15.19 2.5823-21.468.37975-21.468-7.9494v-41.468h22.203v-24.076h-22.203v-23.671h-29.62l-3.6962 23.671-14.81 1.8734v22.203h14.81v45.165c0 34.608 30.911 36.835 57.367 27.772l-2.5823-23.519z"/><path d="m383.38-314.3-2.4051-14.633h-31.468v98.861h33.316v-55.899c9.8228-12.785 19.24-16.861 37.772-14.633l2.5823-30.734c-18.152-1.6456-33.873 6.1266-39.797 17.038"/><path d="m281.84-331.7c-15.924 0-32.759 3.6962-44.228 10.177l2.5823 23.316c13.519-5.1646 27.013-6.6582 36.101-6.6582 10.734 0 17.215 3.3418 17.215 11.114v3.1392c-31.114-7.038-62.38 2.0506-62.38 32.582 0 18.127 13.873 30.709 31.646 30.709 12.582 0 22.582-3.6962 30.734-10.911l1.8481 8.1519h31.468v-67.013c0-25.899-21.468-34.608-44.987-34.608m11.671 72.557c-3.519 4.2532-10.557 7.9494-16.304 7.9494-6.6582 0-11.848-3.1392-11.848-9.0633 0-9.0633 9.443-13.873 28.152-9.443v10.557z"/></g></svg>

<?xml version="1.0" encoding="UTF-8" standalone="no"?>
<!-- Created with Inkscape (http://www.inkscape.org/) -->

<svg
   xmlns:dc="http://purl.org/dc/elements/1.1/"
   xmlns:cc="http://creativecommons.org/ns#"
   xmlns:rdf="http://www.w3.org/1999/02/22-rdf-syntax-ns#"
   xmlns:svg="http://www.w3.org/2000/svg"
   xmlns="http://www.w3.org/2000/svg"
   xmlns:sodipodi="http://sodipodi.sourceforge.net/DTD/sodipodi-0.dtd"
   xmlns:inkscape="http://www.inkscape.org/namespaces/inkscape"
   width="7.3999987mm"
   height="5.182786mm"
   viewBox="0 0 7.3999987 5.182786"
   version="1.1"
   id="svg49942"
   inkscape:version="0.92.0 r15299"
   sodipodi:docname="CT D CT Art - Dark.svg">
  <defs
     id="defs49936">
    <clipPath
       clipPathUnits="userSpaceOnUse"
       id="clipPath84704">
      <path
         d="m 289.404,673.765 h 20.976 v 7.147 h -20.976 z"
         id="path84702"
         inkscape:connector-curvature="0" />
    </clipPath>
    <clipPath
       clipPathUnits="userSpaceOnUse"
       id="clipPath84860">
      <path
         d="m 289.404,657.394 h 20.976 v 6.44 h -20.976 z"
         id="path84858"
         inkscape:connector-curvature="0" />
    </clipPath>
  </defs>
  <sodipodi:namedview
     id="base"
     pagecolor="#ffffff"
     bordercolor="#666666"
     borderopacity="1.0"
     inkscape:pageopacity="0.0"
     inkscape:pageshadow="2"
     inkscape:zoom="31.678384"
     inkscape:cx="12.220594"
     inkscape:cy="5.9945124"
     inkscape:document-units="mm"
     inkscape:current-layer="layer1"
     showgrid="false"
     fit-margin-top="0"
     fit-margin-left="0"
     fit-margin-right="0"
     fit-margin-bottom="0"
     inkscape:window-width="1920"
     inkscape:window-height="1017"
     inkscape:window-x="-8"
     inkscape:window-y="-8"
     inkscape:window-maximized="1" />
  <metadata
     id="metadata49939">
    <rdf:RDF>
      <cc:Work
         rdf:about="">
        <dc:format>image/svg+xml</dc:format>
        <dc:type
           rdf:resource="http://purl.org/dc/dcmitype/StillImage" />
        <dc:title></dc:title>
      </cc:Work>
    </rdf:RDF>
  </metadata>
  <g
     inkscape:label="Layer 1"
     inkscape:groupmode="layer"
     id="layer1"
     transform="translate(85.342753,-69.709583)">
    <g
       id="g50672">
      <g
         id="g84698"
         transform="matrix(0.35277777,0,0,-0.35277777,-187.43812,309.9202)">
        <g
           clip-path="url(#clipPath84704)"
           id="g84700">
          <g
             transform="translate(302.9411,680.0648)"
             id="g84706">
            <path
               inkscape:connector-curvature="0"
               id="path84708"
               style="fill:#0e87d2;fill-opacity:1;fill-rule:nonzero;stroke:none"
               d="M 0,0 C -0.59,0 -0.843,-0.203 -0.911,-0.582 H 0.912 C 0.843,-0.203 0.59,0 0,0" />
          </g>
          <g
             transform="translate(289.6422,679.4829)"
             id="g84710">
            <path
               inkscape:connector-curvature="0"
               id="path84712"
               style="fill:#0e87d2;fill-opacity:1;fill-rule:nonzero;stroke:none"
               d="M 0,0 H 2.437 C 2.63,0.277 2.962,0.383 3.585,0.449 3.893,0.482 4.22,0.501 4.513,0.512 V 1.43 C 3.895,1.419 3.131,1.392 2.426,1.336 0.76,1.202 0.258,0.951 0,0" />
          </g>
          <g
             transform="translate(302.9411,678.4043)"
             id="g84714">
            <path
               inkscape:connector-curvature="0"
               id="path84716"
               style="fill:#8ad03a;fill-opacity:1;fill-rule:nonzero;stroke:none"
               d="m 0,0 c 0.71,0 0.932,0.293 0.932,0.826 0,0.091 -0.006,0.175 -0.02,0.253 H -0.911 C -0.925,1.001 -0.932,0.917 -0.932,0.826 -0.932,0.293 -0.71,0 0,0" />
          </g>
          <g
             transform="translate(291.813,678.543)"
             id="g84718">
            <path
               inkscape:connector-curvature="0"
               id="path84720"
               style="fill:#8ad03a;fill-opacity:1;fill-rule:nonzero;stroke:none"
               d="M 0,0 C 0.055,0.44 0.123,0.736 0.266,0.94 H -2.171 C -2.213,0.784 -2.249,0.609 -2.282,0.412 -2.333,0.11 -2.365,-0.201 -2.384,-0.489 h 2.338 C -0.035,-0.329 -0.02,-0.162 0,0" />
          </g>
          <g
             transform="translate(291.7422,677.3378)"
             id="g84722">
            <path
               inkscape:connector-curvature="0"
               id="path84724"
               style="fill:#f89a0f;fill-opacity:1;fill-rule:nonzero;stroke:none"
               d="M 0,0 C 0,0.196 0.006,0.448 0.024,0.716 H -2.313 C -2.331,0.449 -2.338,0.202 -2.338,0.001 c 0,-0.202 0.007,-0.448 0.025,-0.715 H 0.024 C 0.006,-0.447 0,-0.194 0,0" />
          </g>
          <g
             transform="translate(291.7666,676.6239)"
             id="g84726">
            <path
               inkscape:connector-curvature="0"
               id="path84728"
               style="fill:#f36717;fill-opacity:1;fill-rule:nonzero;stroke:none"
               d="m 0,0 h -2.337 c 0.018,-0.289 0.051,-0.6 0.101,-0.902 0.034,-0.196 0.069,-0.371 0.112,-0.528 H 0.313 C 0.17,-1.226 0.102,-0.93 0.047,-0.49 0.026,-0.327 0.011,-0.161 0,0" />
          </g>
          <g
             transform="translate(302.9411,676.5491)"
             id="g84730">
            <path
               inkscape:connector-curvature="0"
               id="path84732"
               style="fill:#f36717;fill-opacity:1;fill-rule:nonzero;stroke:none"
               d="m 0,0 c -0.71,0 -0.932,-0.293 -0.932,-0.835 0,-0.212 0.036,-0.387 0.123,-0.52 h 1.618 c 0.088,0.133 0.123,0.308 0.123,0.52 C 0.932,-0.293 0.71,0 0,0" />
          </g>
          <g
             transform="translate(302.9411,674.889)"
             id="g84734">
            <path
               inkscape:connector-curvature="0"
               id="path84736"
               style="fill:#ed1c24;fill-opacity:1;fill-rule:nonzero;stroke:none"
               d="M 0,0 C 0.426,0 0.677,0.106 0.809,0.305 H -0.809 C -0.677,0.106 -0.426,0 0,0" />
          </g>
          <g
             transform="translate(293.2267,674.7457)"
             id="g84738">
            <path
               inkscape:connector-curvature="0"
               id="path84740"
               style="fill:#ed1c24;fill-opacity:1;fill-rule:nonzero;stroke:none"
               d="m 0,0 c -0.622,0.067 -0.953,0.173 -1.147,0.449 h -2.438 c 0.258,-0.951 0.76,-1.203 2.427,-1.336 0.705,-0.056 1.468,-0.084 2.087,-0.094 v 0.918 C 0.636,-0.053 0.308,-0.033 0,0" />
          </g>
          <g
             transform="translate(307.0516,680.4153)"
             id="g84742">
            <path
               inkscape:connector-curvature="0"
               id="path84744"
               style="fill:#0e87d2;fill-opacity:1;fill-rule:nonzero;stroke:none"
               d="M 0,0 H -2.157 V -0.932 H 2.615 C 2.035,-0.318 1.13,0 0,0" />
          </g>
          <g
             transform="translate(296.1463,679.9323)"
             id="g84746">
            <path
               inkscape:connector-curvature="0"
               id="path84748"
               style="fill:#0e87d2;fill-opacity:1;fill-rule:nonzero;stroke:none"
               d="M 0,0 C 0.623,-0.067 0.954,-0.173 1.148,-0.449 H 3.585 C 3.328,0.502 2.825,0.753 1.159,0.887 0.454,0.942 -0.309,0.97 -0.928,0.98 V 0.063 C -0.635,0.052 -0.307,0.033 0,0" />
          </g>
          <g
             transform="translate(297.5606,678.543)"
             id="g84750">
            <path
               inkscape:connector-curvature="0"
               id="path84752"
               style="fill:#50be37;fill-opacity:1;fill-rule:nonzero;stroke:none"
               d="M 0,0 C 0.021,-0.162 0.036,-0.329 0.046,-0.489 H 2.384 C 2.365,-0.201 2.333,0.11 2.282,0.412 2.249,0.609 2.213,0.784 2.171,0.94 H -0.266 C -0.123,0.736 -0.055,0.44 0,0" />
          </g>
          <g
             transform="translate(306.5809,678.0534)"
             id="g84754">
            <path
               inkscape:connector-curvature="0"
               id="path84756"
               style="fill:#8ad03a;fill-opacity:1;fill-rule:nonzero;stroke:none"
               d="M 0,0 V 1.119 H 0.595 C 1.353,1.119 1.846,0.721 2.009,0 H 3.757 C 3.666,0.581 3.435,1.059 3.086,1.43 H -1.686 V 0 Z" />
          </g>
          <g
             transform="translate(308.6496,677.4772)"
             id="g84758">
            <path
               inkscape:connector-curvature="0"
               id="path84760"
               style="fill:#f7961d;fill-opacity:1;fill-rule:nonzero;stroke:none"
               d="M 0,0 C 0,-0.329 -0.05,-0.615 -0.144,-0.853 H 1.633 C 1.697,-0.592 1.731,-0.308 1.731,0 1.731,0.202 1.717,0.394 1.688,0.577 H -0.06 C -0.02,0.403 0,0.21 0,0" />
          </g>
          <g
             transform="translate(297.6071,676.6239)"
             id="g84762">
            <path
               inkscape:connector-curvature="0"
               id="path84764"
               style="fill:#f89a0f;fill-opacity:1;fill-rule:nonzero;stroke:none"
               d="m 0,0 h 2.338 c 0.017,0.266 0.024,0.513 0.024,0.715 0,0.201 -0.007,0.448 -0.024,0.715 H 0 C 0.018,1.162 0.024,0.91 0.024,0.714 0.024,0.52 0.018,0.267 0,0" />
          </g>
          <path
             inkscape:connector-curvature="0"
             id="path84766"
             style="fill:#f89a0f;fill-opacity:1;fill-rule:nonzero;stroke:none"
             d="m 306.581,678.053 h -1.687 v -1.429 h 1.687 z" />
          <g
             transform="translate(307.1758,675.7811)"
             id="g84768">
            <path
               inkscape:connector-curvature="0"
               id="path84770"
               style="fill:#f25b23;fill-opacity:1;fill-rule:nonzero;stroke:none"
               d="m 0,0 h -0.595 v 0.843 h -1.687 v -1.43 h 4.465 c 0.455,0.345 0.773,0.824 0.923,1.43 H 1.33 C 1.112,0.297 0.655,0 0,0" />
          </g>
          <g
             transform="translate(299.9449,676.6239)"
             id="g84772">
            <path
               inkscape:connector-curvature="0"
               id="path84774"
               style="fill:#f36717;fill-opacity:1;fill-rule:nonzero;stroke:none"
               d="M 0,0 H -2.338 C -2.349,-0.161 -2.364,-0.327 -2.384,-0.49 -2.44,-0.93 -2.508,-1.226 -2.651,-1.43 h 2.437 c 0.043,0.157 0.079,0.332 0.112,0.528 C -0.051,-0.6 -0.019,-0.289 0,0" />
          </g>
          <g
             transform="translate(299.7315,675.1943)"
             id="g84776">
            <path
               inkscape:connector-curvature="0"
               id="path84778"
               style="fill:#ee2533;fill-opacity:1;fill-rule:nonzero;stroke:none"
               d="M 0,0 H -2.437 C -2.631,-0.276 -2.962,-0.382 -3.585,-0.449 -3.893,-0.482 -4.22,-0.501 -4.513,-0.512 V -1.43 c 0.619,0.011 1.382,0.038 2.087,0.094 C -0.76,-1.202 -0.258,-0.951 0,0" />
          </g>
          <g
             transform="translate(304.8943,674.5381)"
             id="g84780">
            <path
               inkscape:connector-curvature="0"
               id="path84782"
               style="fill:#ed1c24;fill-opacity:1;fill-rule:nonzero;stroke:none"
               d="M 0,0 H 2.157 C 3.103,0 3.892,0.223 4.464,0.656 H 0 Z" />
          </g>
        </g>
      </g>
    </g>
    <g
       transform="matrix(0.01233336,0,0,0.01233336,-84.162502,77.161362)"
       id="g16-0"
       style="fill:#888b8c;fill-opacity:1;fill-rule:nonzero">
      <path
         d="m -92.354,-320.53 c -2.5823,15.266 -3.3418,31.494 -3.3418,42.532 0,11.038 0.75949,27.266 3.3418,42.532 6.2025,36.633 15.722,44.937 66.759,49.013 18.532,1.4937 38.608,2.2025 54.886,2.481 v -24.152 c -7.7215,-0.27848 -16.329,-0.78481 -24.405,-1.6456 -28.456,-3.038 -33.772,-9.2152 -37.215,-36.557 -1.443,-11.342 -1.8734,-23.443 -1.8734,-31.646 0,-8.2278 0.43038,-20.329 1.8734,-31.722 3.443,-27.316 8.7595,-33.494 37.215,-36.532 8.0759,-0.86076 16.684,-1.3671 24.405,-1.6456 v -24.127 c -16.278,0.25317 -36.354,0.98735 -54.886,2.4557 -51.038,4.076 -60.557,12.354 -66.759,49.013"
         id="path6-2"
         style="fill:#888b8c;fill-opacity:1"
         inkscape:connector-curvature="0" />
      <path
         d="m 112.16,-369.55 c -18.532,-1.4684 -38.608,-2.2025 -54.886,-2.4557 v 24.127 c 7.6962,0.27848 16.329,0.78481 24.405,1.6456 28.456,3.038 33.772,9.2152 37.215,36.557 1.4177,11.392 1.8481,23.468 1.8481,31.696 0,8.2025 -0.43038,20.304 -1.8481,31.671 -3.443,27.316 -8.7595,33.494 -37.215,36.532 -8.0759,0.86076 -16.709,1.3924 -24.405,1.6709 v 24.127 c 16.278,-0.25316 36.354,-0.98734 54.886,-2.4557 51.038,-4.1013 60.557,-12.38 66.759,-49.038 2.557,-15.266 3.3165,-31.494 3.3165,-42.532 0,-11.013 -0.75949,-27.266 -3.3165,-42.532 -6.2025,-36.633 -15.722,-44.911 -66.759,-49.013"
         id="path8-7"
         style="fill:#888b8c;fill-opacity:1"
         inkscape:connector-curvature="0" />
      <path
         d="m 501.72,-255.45 c -15.19,2.5823 -21.468,0.37975 -21.468,-7.9494 v -41.468 h 22.203 v -24.076 h -22.203 v -23.671 h -29.62 l -3.6962,23.671 -14.81,1.8734 v 22.203 h 14.81 v 45.165 c 0,34.608 30.911,36.835 57.367,27.772 l -2.5823,-23.519 z"
         id="path10-1"
         style="fill:#888b8c;fill-opacity:1"
         inkscape:connector-curvature="0" />
      <path
         d="m 383.38,-314.3 -2.4051,-14.633 h -31.468 v 98.861 h 33.316 v -55.899 c 9.8228,-12.785 19.24,-16.861 37.772,-14.633 l 2.5823,-30.734 c -18.152,-1.6456 -33.873,6.1266 -39.797,17.038"
         id="path12-2"
         style="fill:#888b8c;fill-opacity:1"
         inkscape:connector-curvature="0" />
      <path
         d="m 281.84,-331.7 c -15.924,0 -32.759,3.6962 -44.228,10.177 l 2.5823,23.316 c 13.519,-5.1646 27.013,-6.6582 36.101,-6.6582 10.734,0 17.215,3.3418 17.215,11.114 v 3.1392 c -31.114,-7.038 -62.38,2.0506 -62.38,32.582 0,18.127 13.873,30.709 31.646,30.709 12.582,0 22.582,-3.6962 30.734,-10.911 l 1.8481,8.1519 h 31.468 v -67.013 c 0,-25.899 -21.468,-34.608 -44.987,-34.608 m 11.671,72.557 c -3.519,4.2532 -10.557,7.9494 -16.304,7.9494 -6.6582,0 -11.848,-3.1392 -11.848,-9.0633 0,-9.0633 9.443,-13.873 28.152,-9.443 v 10.557 z"
         id="path14-0"
         style="fill:#888b8c;fill-opacity:1"
         inkscape:connector-curvature="0" />
    </g>
  </g>
</svg>
